X: 06096
T: TRAPEZOIDAL JIG
C: Bob McQuillen 4 Nov 82
B: Bob's Note Book 6 #96
%R: jig
Z: 2021 John Chambers <jc:trillian.mit.edu>
N: This tune used |[1 ... |[2 ...]| notation inside the 2nd strain, which ABC doesn't handle.
N: So I duplicated the entire strain, each with those internal bars different in each.
M: 6/8
L: 1/8
K: D
|:ABA AFA | def e2d | BGB A2A | GAB AFA |\
| dBd AFA | def e2d | BGB Ade | fdf e2d :|
[|a2b a2f | gfg e2A | d2f e2g | faf e3 |\
| aba fdf | gfg ecA | d2f efg | afd e2d |]
[|a2b a2f | gfg e2A | d3 e3 | f3 g3 |\
| aba fdf | gfg ecA | d2f efg | afd e2d :|
%%begintext align
%% Just about every time
%% I've gone to Augusta at Elkins, W.Va., I've encountered
%% "Trapezoid" - Freyda Epstein, Lorraine Duisit, Ralph
%% Gordon, and Paul Raisler - great musicians all who
%% delight us with their great concerts - Thank you so
%% much for your beautiful music, and Best Wishes always -
%%endtext

%%sep 1 1 500

%%sep 1 1 500

